X:19060
T:Stybarrow Crag
T:Sunderland Pier
R:March
C:Trad.
O:England, Cumbria
Z:Paul Hardy's Session Tunebook 2015 (see www.paulhardy.net). Creative Commons cc by-nc-sa licenced.
M:2/2
L:1/8
Q:1/2=80
K:G
dc|"G"B2dB "C"c2ec|"D"d2ef "Em"g2fe|"G"dgdB gdcB|"D"B2A2 "D7"A2dc|
"G"B2Bd "C"c2ce|"D"d2df "Em"g2fe|"G"dgdB "D"AGAB|"G"G2B2 G2:|
|:fe|"D"defd adfd|"C"fdec "G"B2dc|"Am"cAec "G"BGdB|"D"AGAB "D7"A2dc|
"G"Bdce "D"dgfa|"Em"gdef g2fe|"G"dgdB "D7"AGAB|"G"G2B2 G2:|

